Sources/FrostedUI/Resources/Icons.xcassets/compass20.imageset/compass-20.svg

<svg width="20" height="20" viewBox="0 0 20 20" fill="none" xmlns="http://www.w3.org/2000/svg" data-fui-icon="true">
  <g clip-path="url(#clip0_5548_13)">
    <path
      d="M10 0.916992C15.0163 0.91719 19.0838 4.98368 19.084 10C19.0838 15.0163 15.0163 19.0838 10 19.084C4.98368 19.0838 0.91719 15.0163 0.916992 10C0.917168 4.98367 4.98367 0.917168 10 0.916992ZM10 2.41699C5.8121 2.41717 2.41717 5.8121 2.41699 10C2.41719 14.1879 5.81211 17.5838 10 17.584C14.1879 17.5838 17.5838 14.1879 17.584 10C17.5838 5.81211 14.1879 2.41719 10 2.41699ZM12.2383 5.7627C13.4875 5.28887 14.7105 6.51156 14.2373 7.76074L12.8955 11.2988C12.6164 12.0347 12.0347 12.6164 11.2988 12.8955L7.76074 14.2373C6.51157 14.7105 5.28886 13.4875 5.7627 12.2383L7.10449 8.7002C7.38361 7.96458 7.96458 7.38361 8.7002 7.10449L12.2383 5.7627ZM12.7705 7.16504L9.23242 8.50684C8.89811 8.63371 8.63371 8.89811 8.50684 9.23242L7.16504 12.7705C7.1612 12.7807 7.16038 12.7872 7.16016 12.79C7.15999 12.7927 7.15973 12.7956 7.16016 12.7979C7.16147 12.8032 7.16601 12.8133 7.17578 12.8232C7.1858 12.8333 7.19666 12.8375 7.20215 12.8389C7.20422 12.8393 7.20655 12.8399 7.20898 12.8398C7.21157 12.8397 7.21861 12.8391 7.22949 12.835L10.7676 11.4922C11.1017 11.3653 11.3653 11.1017 11.4922 10.7676L12.835 7.22949C12.8391 7.21861 12.8397 7.21157 12.8398 7.20898C12.8399 7.20655 12.8393 7.20422 12.8389 7.20215C12.8375 7.19666 12.8333 7.1858 12.8232 7.17578C12.8133 7.16601 12.8032 7.16147 12.7979 7.16016C12.7956 7.15973 12.7927 7.15999 12.79 7.16016C12.7872 7.16038 12.7807 7.1612 12.7705 7.16504Z"
      fill="currentColor"
    />
  </g>
  <defs>
    <clipPath id="clip0_5548_13"><path fill="currentColor" d="M0 0H20V20H0z" /></clipPath>
  </defs>
</svg>

<svg xmlns="http://www.w3.org/2000/svg" width="20" height="20" fill="none" data-fui-icon="true" viewBox="0 0 20 20"><g clip-path="url(#a)"><path fill="currentColor" d="M10 .917a9.084 9.084 0 1 1 0 18.168A9.084 9.084 0 0 1 10 .917m0 1.5a7.583 7.583 0 1 0 0 15.167 7.583 7.583 0 0 0 0-15.167m2.238 3.346c1.25-.474 2.473.749 2 1.998l-1.342 3.538a2.75 2.75 0 0 1-1.597 1.597L7.76 14.237c-1.25.473-2.472-.75-1.998-1.999L7.104 8.7A2.75 2.75 0 0 1 8.7 7.104zm.533 1.402L9.232 8.507a1.25 1.25 0 0 0-.725.725l-1.342 3.539-.005.019v.008a.1.1 0 0 0 .016.025q.016.014.026.016h.007q.005.001.02-.004l3.539-1.343a1.25 1.25 0 0 0 .724-.724l1.343-3.539.005-.02-.001-.007a.1.1 0 0 0-.016-.026.1.1 0 0 0-.025-.016h-.008z"/></g><defs><clipPath id="a"><path fill="currentColor" d="M0 0h20v20H0z"/></clipPath></defs></svg>
